packages/kaspersky-hexa-ui-icons/src/iconsSVGs/24/NotInherit.svg

<svg xmlns="http://www.w3.org/2000/svg" width="24" height="24" fill="none" viewBox="0 0 24 24"><path fill="#000" fill-rule="evenodd" d="M7 10V7c0-2.7614 2.2386-5 5-5s5 2.2386 5 5v3c1.6569 0 3 1.3431 3 3v6c0 1.6569-1.3431 3-3 3H7c-1.6569 0-3-1.3431-3-3v-6c0-1.6569 1.3431-3 3-3m8-3v3H9V7c0-1.6569 1.3431-3 3-3s3 1.3431 3 3m2 5H7c-.5523 0-1 .4477-1 1v6c0 .5523.4477 1 1 1h10c.5523 0 1-.4477 1-1v-6c0-.5523-.4477-1-1-1"/></svg>

<svg width="24" height="24" viewBox="0 0 24 24" fill="none" xmlns="http://www.w3.org/2000/svg">
<path fill-rule="evenodd" clip-rule="evenodd" d="M7 10V7C7 4.23858 9.23858 2 12 2C14.7614 2 17 4.23858 17 7V10C18.6569 10 20 11.3431 20 13V19C20 20.6569 18.6569 22 17 22H7C5.34315 22 4 20.6569 4 19V13C4 11.3431 5.34315 10 7 10ZM15 7V10H9V7C9 5.34315 10.3431 4 12 4C13.6569 4 15 5.34315 15 7ZM17 12H7C6.44772 12 6 12.4477 6 13V19C6 19.5523 6.44772 20 7 20H17C17.5523 20 18 19.5523 18 19V13C18 12.4477 17.5523 12 17 12Z" fill="black"/>
</svg>
